X:14
T:The Wooden City Polkas
T:Wooden City Polka #3
C:Paddy O'Brien (Offaly)
R:polka
D:Snug in the Blanket,P.O'Brien,J.Gans,D.Sproule
Z:Paul Stewart Cranford (P.S.C.), <http://www.cranfordpub.com>
L:1/8
Q:333
M:2/4
K:Emix
E>E Ed|cA BG|E>E EG|FD A/G/F|
E>E Ed|cA ce|d>d dB|[1cA FD:|[2cA B/c/d||
|:e>e eB|d>d dB|e>e ef|dB AB|
e>e ef|d>d de|cA BG|DE FA:|
